Sweet-Rainbow/icons/applications-development.svg

<?xml version="1.0" encoding="UTF-8" standalone="no"?>
<!-- Generator: Gravit.io -->

<svg
   xmlns:dc="http://purl.org/dc/elements/1.1/"
   xmlns:cc="http://creativecommons.org/ns#"
   xmlns:rdf="http://www.w3.org/1999/02/22-rdf-syntax-ns#"
   xmlns:svg="http://www.w3.org/2000/svg"
   xmlns="http://www.w3.org/2000/svg"
   xmlns:sodipodi="http://sodipodi.sourceforge.net/DTD/sodipodi-0.dtd"
   xmlns:inkscape="http://www.inkscape.org/namespaces/inkscape"
   style="isolation:isolate"
   viewBox="0 0 36 36"
   width="48"
   height="48"
   version="1.1"
   id="svg21"
   sodipodi:docname="applications-development.svg"
   inkscape:version="0.92.4 (5da689c313, 2019-01-14)">
  <metadata
     id="metadata27">
    <rdf:RDF>
      <cc:Work
         rdf:about="">
        <dc:format>image/svg+xml</dc:format>
        <dc:type
           rdf:resource="http://purl.org/dc/dcmitype/StillImage" />
        <dc:title></dc:title>
      </cc:Work>
    </rdf:RDF>
  </metadata>
  <defs
     id="defs25" />
  <sodipodi:namedview
     pagecolor="#ffffff"
     bordercolor="#666666"
     borderopacity="1"
     objecttolerance="10"
     gridtolerance="10"
     guidetolerance="10"
     inkscape:pageopacity="0"
     inkscape:pageshadow="2"
     inkscape:window-width="640"
     inkscape:window-height="480"
     id="namedview23"
     showgrid="false"
     inkscape:zoom="29.365243"
     inkscape:cx="25.325443"
     inkscape:cy="32"
     inkscape:current-layer="svg21"
     units="px" />
  <linearGradient
     id="_lgradient_2"
     x1="-0.59027779"
     y1="0.49107143"
     x2="1.805162"
     y2="0.4812001"
     gradientTransform="matrix(18,0,0,14,15,17)"
     gradientUnits="userSpaceOnUse">
    <stop
       offset="0%"
       stop-opacity="1"
       style="stop-color:rgb(24,208,173)"
       id="stop2" />
    <stop
       offset="90.44964029999998%"
       stop-opacity="1"
       style="stop-color:rgb(7,195,242)"
       id="stop4" />
  </linearGradient>
  <linearGradient
     id="_lgradient_3"
     x1="3.3879371"
     y1="26.708284"
     x2="43.962521"
     y2="27.041622"
     gradientTransform="scale(1.1253161,0.88863923)"
     gradientUnits="userSpaceOnUse">
    <stop
       offset="0%"
       stop-opacity="1"
       style="stop-color:rgb(24,208,173)"
       id="stop7" />
    <stop
       offset="90.44964029999998%"
       stop-opacity="1"
       style="stop-color:rgb(7,195,242)"
       id="stop9" />
  </linearGradient>
  <linearGradient
     id="_lgradient_4"
     x1="0"
     y1="0.5"
     x2="1.1055876"
     y2="0.5"
     gradientTransform="matrix(40,0,0,44,4,2)"
     gradientUnits="userSpaceOnUse">
    <stop
       offset="0%"
       stop-opacity="1"
       style="stop-color:rgb(24,208,173)"
       id="stop14" />
    <stop
       offset="90.44964029999998%"
       stop-opacity="1"
       style="stop-color:rgb(7,195,242)"
       id="stop16" />
  </linearGradient>
  <g
     id="g839"
     transform="matrix(0.81818182,0,0,0.81818182,-1.6363637,-1.6363637)">
    <path
       id="path12"
       stroke-miterlimit="4"
       d="m 21,17 c -1.445,0 -2.211,0.214 -2.937,0.656 C 17.343,18.092 17,18.787 17,19.719 V 21.5 c 0,0.556 -0.248,0.944 -0.687,1.219 -0.433,0.269 -0.414,0.437 -1.313,0.437 v 1.688 c 1.772,0 2,0.576 2,1.687 v 1.532 c 0,1.021 0.327,1.795 1,2.25 0.679,0.46 1.461,0.675 3,0.687 V 29.375 C 20.234,29.363 19.84,29.22 19.5,28.969 19.16,28.718 19,28.365 19,27.875 v -1.687 c 0,-1.201 -0.6,-1.91 -2.125,-2.125 V 23.938 C 18.4,23.704 19,22.97 19,21.781 v -1.656 c 0,-0.49 0.16,-0.818 0.5,-1.062 0.346,-0.251 0.741,-0.408 1.5,-0.438 z m 6,0 v 1.625 c 0.759,0.03 1.154,0.187 1.5,0.438 0.34,0.244 0.5,0.572 0.5,1.062 v 1.656 c 0,1.189 0.6,1.923 2.125,2.157 v 0.125 C 29.6,24.278 29,24.987 29,26.188 v 1.687 c 0,0.49 -0.16,0.843 -0.5,1.094 -0.34,0.251 -0.734,0.394 -1.5,0.406 V 31 c 1.539,-0.012 2.321,-0.227 3,-0.687 0.673,-0.455 1,-1.229 1,-2.25 v -1.532 c 0,-1.111 0.228,-1.687 2,-1.687 v -1.688 c -0.899,0 -0.88,-0.168 -1.312,-0.437 C 31.248,22.444 31,22.056 31,21.5 V 19.719 C 31,18.787 30.657,18.092 29.938,17.656 29.211,17.214 28.445,17 27,17 Z"
       inkscape:connector-curvature="0"
       style="vector-effect:non-scaling-stroke;fill:url(#_lgradient_2);stroke:url(#_lgradient_3);stroke-width:1;stroke-linecap:butt;stroke-linejoin:miter;stroke-miterlimit:4" />
    <path
       id="path19"
       d="m 8,24 v 0 c 0,1.104 -0.896,2 -2,2 v 0 C 4.896,26 4,25.104 4,24 V 24 6 C 4,3.792 5.792,2 8,2 h 32 c 2.208,0 4,1.792 4,4 v 8 0 c 0,1.104 -0.896,2 -2,2 v 0 c -1.104,0 -2,-0.896 -2,-2 V 14 9 C 40,7.344 38.656,6 37,6 H 11 C 9.344,6 8,7.344 8,9 Z m 32,-1 v 0 c 0,-1.104 0.896,-2 2,-2 v 0 c 1.104,0 2,0.896 2,2 v 0 18 c 0,2.76 -2.24,5 -5,5 H 9 C 6.24,46 4,43.76 4,41 v -7 0 c 0,-1.104 0.896,-2 2,-2 v 0 c 1.104,0 2,0.896 2,2 v 0 5 c 0,1.656 1.344,3 3,3 h 26 c 1.656,0 3,-1.344 3,-3 z"
       inkscape:connector-curvature="0"
       style="fill:url(#_lgradient_4);fill-rule:evenodd" />
  </g>
</svg>

<?xml version="1.0" encoding="UTF-8" standalone="no"?><!-- Generator: Gravit.io --><svg xmlns="http://www.w3.org/2000/svg" xmlns:xlink="http://www.w3.org/1999/xlink" style="isolation:isolate" viewBox="0 0 48 48" width="48pt" height="48pt"><linearGradient id="_lgradient_2" x1="-0.5902777777777777" y1="0.4910714285714287" x2="1.8051620044926078" y2="0.481200110787347" gradientTransform="matrix(18,0,0,14,15,17)" gradientUnits="userSpaceOnUse"><stop offset="0%" stop-opacity="1" style="stop-color:rgb(24,208,173)"/><stop offset="90.44964029999998%" stop-opacity="1" style="stop-color:rgb(7,195,242)"/></linearGradient><linearGradient id="_lgradient_3" x1="-0.5625000000000001" y1="0.4821428571428572" x2="1.8406174738802266" y2="0.5018854927110197"><stop offset="0%" stop-opacity="1" style="stop-color:rgb(24,208,173)"/><stop offset="90.44964029999998%" stop-opacity="1" style="stop-color:rgb(7,195,242)"/></linearGradient><path d=" M 21 17 C 19.555 17 18.789 17.214 18.063 17.656 C 17.343 18.092 17 18.787 17 19.719 L 17 21.5 C 17 22.056 16.752 22.444 16.313 22.719 C 15.88 22.988 15.899 23.156 15 23.156 L 15 24.844 C 16.772 24.844 17 25.42 17 26.531 L 17 28.063 C 17 29.084 17.327 29.858 18 30.313 C 18.679 30.773 19.461 30.988 21 31 L 21 29.375 C 20.234 29.363 19.84 29.22 19.5 28.969 C 19.16 28.718 19 28.365 19 27.875 L 19 26.188 C 19 24.987 18.4 24.278 16.875 24.063 L 16.875 23.938 C 18.4 23.704 19 22.97 19 21.781 L 19 20.125 C 19 19.635 19.16 19.307 19.5 19.063 C 19.846 18.812 20.241 18.655 21 18.625 L 21 17 Z  M 27 17 L 27 18.625 C 27.759 18.655 28.154 18.812 28.5 19.063 C 28.84 19.307 29 19.635 29 20.125 L 29 21.781 C 29 22.97 29.6 23.704 31.125 23.938 L 31.125 24.063 C 29.6 24.278 29 24.987 29 26.188 L 29 27.875 C 29 28.365 28.84 28.718 28.5 28.969 C 28.16 29.22 27.766 29.363 27 29.375 L 27 31 C 28.539 30.988 29.321 30.773 30 30.313 C 30.673 29.858 31 29.084 31 28.063 L 31 26.531 C 31 25.42 31.228 24.844 33 24.844 L 33 23.156 C 32.101 23.156 32.12 22.988 31.688 22.719 C 31.248 22.444 31 22.056 31 21.5 L 31 19.719 C 31 18.787 30.657 18.092 29.938 17.656 C 29.211 17.214 28.445 17 27 17 Z " fill="url(#_lgradient_2)" vector-effect="non-scaling-stroke" stroke-width="1" stroke="url(#_lgradient_3)" stroke-linejoin="miter" stroke-linecap="butt" stroke-miterlimit="4"/><linearGradient id="_lgradient_4" x1="0" y1="0.5" x2="1.105587591817101" y2="0.4999999999999997" gradientTransform="matrix(40,0,0,44,4,2)" gradientUnits="userSpaceOnUse"><stop offset="0%" stop-opacity="1" style="stop-color:rgb(24,208,173)"/><stop offset="90.44964029999998%" stop-opacity="1" style="stop-color:rgb(7,195,242)"/></linearGradient><path d=" M 8 24 L 8 24 C 8 25.104 7.104 26 6 26 L 6 26 C 4.896 26 4 25.104 4 24 L 4 24 L 4 6 C 4 3.792 5.792 2 8 2 L 40 2 C 42.208 2 44 3.792 44 6 L 44 14 L 44 14 C 44 15.104 43.104 16 42 16 L 42 16 C 40.896 16 40 15.104 40 14 L 40 14 L 40 9 C 40 7.344 38.656 6 37 6 L 11 6 C 9.344 6 8 7.344 8 9 L 8 24 Z  M 40 23 L 40 23 C 40 21.896 40.896 21 42 21 L 42 21 C 43.104 21 44 21.896 44 23 L 44 23 L 44 41 C 44 43.76 41.76 46 39 46 L 9 46 C 6.24 46 4 43.76 4 41 L 4 34 L 4 34 C 4 32.896 4.896 32 6 32 L 6 32 C 7.104 32 8 32.896 8 34 L 8 34 L 8 39 C 8 40.656 9.344 42 11 42 L 37 42 C 38.656 42 40 40.656 40 39 L 40 23 Z " fill-rule="evenodd" fill="url(#_lgradient_4)"/></svg>
